img/linkedin.svg

<svg width="20" height="20" viewBox="0 0 20 20" fill="none" xmlns="http://www.w3.org/2000/svg">
<g clip-path="url(#clip0_718_348)">
<path d="M0 1.4325C0 0.64125 0.6575 0 1.46875 0H18.5312C19.3425 0 20 0.64125 20 1.4325V18.5675C20 19.3587 19.3425 20 18.5312 20H1.46875C0.6575 20 0 19.3587 0 18.5675V1.4325ZM6.17875 16.7425V7.71125H3.1775V16.7425H6.17875ZM4.67875 6.4775C5.725 6.4775 6.37625 5.785 6.37625 4.9175C6.3575 4.03125 5.72625 3.3575 4.69875 3.3575C3.67125 3.3575 3 4.0325 3 4.9175C3 5.785 3.65125 6.4775 4.65875 6.4775H4.67875ZM10.8138 16.7425V11.6988C10.8138 11.4288 10.8337 11.1587 10.9137 10.9662C11.13 10.4275 11.6238 9.86875 12.4538 9.86875C13.54 9.86875 13.9738 10.6962 13.9738 11.9113V16.7425H16.975V11.5625C16.975 8.7875 15.495 7.4975 13.52 7.4975C11.9275 7.4975 11.2137 8.3725 10.8138 8.98875V9.02H10.7938C10.8004 9.00957 10.8071 8.99915 10.8138 8.98875V7.71125H7.81375C7.85125 8.55875 7.81375 16.7425 7.81375 16.7425H10.8138Z" fill="#1D2947"/>
</g>
<defs>
<clipPath id="clip0_718_348">
<rect width="20" height="20" fill="white"/>
</clipPath>
</defs>
</svg>

<svg width="20" height="20" fill="none" xmlns="http://www.w3.org/2000/svg"><g clip-path="url(#clip0_718_348)"><path d="M0 1.433C0 .64.657 0 1.469 0H18.53C19.343 0 20 .641 20 1.433v17.134C20 19.36 19.343 20 18.531 20H1.47C.657 20 0 19.359 0 18.567V1.433zm6.179 15.31V7.71H3.177v9.031H6.18zm-1.5-10.265c1.046 0 1.697-.693 1.697-1.56-.019-.887-.65-1.56-1.677-1.56C3.67 3.357 3 4.032 3 4.918c0 .867.651 1.56 1.659 1.56h.02zm6.135 10.264V11.7c0-.27.02-.54.1-.733.216-.538.71-1.097 1.54-1.097 1.086 0 1.52.827 1.52 2.042v4.832h3.001v-5.18c0-2.776-1.48-4.066-3.455-4.066-1.592 0-2.306.876-2.706 1.492v.031h-.02l.02-.031V7.71h-3c.037.848 0 9.031 0 9.031h3z" fill="#1D2947"/></g><defs><clipPath id="clip0_718_348"><path fill="#fff" d="M0 0h20v20H0z"/></clipPath></defs></svg>
